Sources/FrostedUI/Resources/Icons.xcassets/beaker20.imageset/beaker-20.svg

<svg width="20" height="20" viewBox="0 0 20 20" fill="none" xmlns="http://www.w3.org/2000/svg" data-fui-icon="true">
  <path
    d="M14.7496 1C15.1638 1 15.4996 1.33579 15.4996 1.75C15.4996 2.16421 15.1638 2.5 14.7496 2.5H13.4996V7.78906C13.4996 7.98351 13.5617 8.17309 13.6764 8.33008L18.6676 15.1572C19.8347 16.7539 18.6942 19 16.7164 19H3.28284C1.3053 18.9998 0.164822 16.7538 1.33167 15.1572L6.32288 8.33008C6.43767 8.17306 6.49963 7.98357 6.49963 7.78906V2.5H5.24963C4.83557 2.49982 4.49963 2.1641 4.49963 1.75C4.49963 1.3359 4.83557 1.00018 5.24963 1H14.7496ZM7.31799 12.9805C6.57619 12.843 5.69776 12.9189 4.53284 13.5713C4.45494 13.6149 4.37195 13.6395 4.2887 13.6533L2.5426 16.042C2.10008 16.6475 2.53287 17.4998 3.28284 17.5H16.7164C17.4667 17.5 17.8994 16.6476 17.4567 16.042L15.8414 13.833C14.6235 14.6583 13.5392 14.9725 12.5114 14.9258C11.3932 14.8749 10.4502 14.3972 9.64709 13.9697C8.80239 13.5201 8.10966 13.1273 7.31799 12.9805ZM7.99963 7.78906C7.99963 8.30187 7.83646 8.80185 7.53381 9.21582L5.86584 11.4951C6.47484 11.3903 7.04632 11.4048 7.59143 11.5059C8.66125 11.7042 9.58267 12.2359 10.3522 12.6455C11.1635 13.0774 11.836 13.3939 12.5797 13.4277C13.2043 13.4561 13.964 13.2836 14.9557 12.6211L12.4655 9.21582C12.1629 8.80188 11.9996 8.3018 11.9996 7.78906V2.5H7.99963V7.78906Z"
    fill="currentColor"
  />
</svg>

<svg xmlns="http://www.w3.org/2000/svg" width="20" height="20" fill="none" data-fui-icon="true" viewBox="0 0 20 20"><path fill="currentColor" d="M14.75 1a.75.75 0 0 1 0 1.5H13.5v5.29c0 .194.062.383.176.54l4.992 6.827c1.167 1.597.026 3.843-1.952 3.843H3.283c-1.978 0-3.118-2.246-1.951-3.843l4.99-6.827a.9.9 0 0 0 .178-.54V2.5H5.25a.75.75 0 0 1 0-1.5zM7.318 12.98c-.742-.137-1.62-.061-2.785.591a.7.7 0 0 1-.244.082l-1.746 2.389a.917.917 0 0 0 .74 1.458h13.433a.917.917 0 0 0 .74-1.458l-1.615-2.209c-1.217.825-2.302 1.14-3.33 1.093-1.118-.051-2.06-.529-2.864-.956-.845-.45-1.537-.843-2.329-.99M8 7.79c0 .512-.164 1.012-.466 1.426l-1.668 2.28a4.9 4.9 0 0 1 1.725.01c1.07.198 1.992.73 2.761 1.14.812.431 1.484.748 2.228.782.624.028 1.384-.144 2.376-.807l-2.49-3.405A2.4 2.4 0 0 1 12 7.789V2.5H8z"/></svg>
